!!!COM: Palestrina, Giovanni Perluigi da
!!!OPR: Missa O sacrum convivium
!!!OMD: Gloria
!!!OTL: First Section
**kern	**kern	**kern	**kern	**kern
*Ibass	*Itenor	*Itenor	*Icalto	*Icant
!Bassus	!Tenor 2	!Tenor 1	!Altus	!Cantus
*clefF4	*clefGv2	*clefGv2	*clefG2	*clefG2
*k[b-]	*k[b-]	*k[b-]	*k[b-]	*k[b-]
*F:ion	*F:ion	*F:ion	*F:ion	*F:ion
*M4/2	*M4/2	*M4/2	*M4/2	*M4/2
=1	=1	=1	=1	=1
0r	1.F	0r	1.c	0f
.	2F	.	2c	.
=2	=2	=2	=2	=2
0r	1B-	0r	1d	0f
.	1A	.	1c	.
=3	=3	=3	=3	=3
0r	1B-	0r	1d	1f
.	1B-	.	2d	1f
.	.	.	[2f	.
=4	=4	=4	=4	=4
1.C	1G	0c	2f]	2.g
.	.	.	4e	.
.	.	.	4d	4g
.	2G	.	2e	2g
2C	[2c	.	2e	2g
=5	=5	=5	=5	=5
1F	4c]	0c	1f	2.a
.	4B-	.	.	.
.	2A	.	.	.
.	.	.	.	4b-
1E	1G	.	1g	[1cc
=6	=6	=6	=6	=6
1F	2.A	1c	2.f	1cc]
.	4G	.	4e	.
1F	4A	1c	4f	1cc
.	4B-	.	4g	.
.	[2c	.	[2a	.
=7	=7	=7	=7	=7
1.D	2c]	2.d	2a]	1.ff
.	4B	.	2g	.
.	4A	4d	.	.
.	2B	2d	1f	.
2D	2B	2d	.	2ff
=8	=8	=8	=8	=8
0C	1c	2e	2r	0ee
.	.	1c	1g	.
.	1r	.	.	.
.	.	2c	2g	.
=9	=9	=9	=9	=9
0r	1r	2f	2a	1cc
.	.	2e	2g	.
.	2r	2.f	2.a	2cc
.	[2f	.	.	[2ff
.	.	4e	4g	.
=10	=10	=10	=10	=10
0r	2f]	2d	4a	2ff]
.	.	.	4b-	.
.	2g	2c	2cc	2ee
.	2f	2.d	4b-	2.ff
.	.	.	4a	.
.	2f	.	[2a	.
.	.	4c	.	4ee
=11	=11	=11	=11	=11
0r	2f	1B-	2a]	1dd
.	4e	.	2g	.
.	4d	.	.	.
.	2e	2A	[1a	1cc
.	2f	2F	.	.
=12	=12	=12	=12	=12
1F	1c	2.f	1a]	2r
.	.	.	.	2cc
.	.	4f	.	.
2.B-	2r	1f	1r	2.dd
.	2d	.	.	.
4B-	.	.	.	4dd
=13	=13	=13	=13	=13
2B-	2f	1d	0r	2dd
2B-	2g	.	.	2dd
1A	2a	2e	.	1cc
.	2a	2f	.	.
=14	=14	=14	=14	=14
2.B-	2f	2d	2r	1.dd
.	2.d	1f	2f	.
4B-	.	.	.	.
[1G	.	.	2.b-	.
.	4d	.	.	.
.	2B-	4e	.	2g
.	.	4d	4b-	.
=15	=15	=15	=15	=15
1G]	1B-	1e	2b-	1g
.	.	.	2b-	.
1F	2r	1f	1a	2.cc
.	2c	.	.	.
.	.	.	.	8b-
.	.	.	.	8cc
=16	=16	=16	=16	=16
1r	2f	1B-	2.b-	1dd
.	1f	.	.	.
.	.	.	4b-	.
[1C	.	[1c	[1g	[1cc
.	4e	.	.	.
.	4d	.	.	.
=17	=17	=17	=17	=17
2C]	2e	2c]	1g]	0cc]
2C	2e	2c	.	.
2F	2f	2A	2f	.
2F	2c	2A	2f	.
=18	=18	=18	=18	=18
1E	2c	2G	1g	1r
.	2B-	2G	.	.
1F	2A	4F	[1a	[1cc
.	.	4G	.	.
.	4F	4A	.	.
.	4G	4B-	.	.
=19	=19	=19	=19	=19
2F	4A	2c	2a]	2cc]
.	4B-	.	.	.
2F	1c	2c	2a	2cc
2D	.	2d	1f	2ff
2D	2B	2d	.	2ff
=20	=20	=20	=20	=20
1C	1c	2G	2r	2ee
.	.	1c	2g	2ee
1F	1A	.	2a	2ff
.	.	2c	2cc	2ff
=21	=21	=21	=21	=21
1BB-	2B-	2f	2.b-	2dd
.	2F	2f	.	2dd
.	.	.	4a	.
1C	2c	2e	4g	4cc
.	.	.	4f	4dd
.	2c	2e	2g	4ee
.	.	.	.	4cc
=22	=22	=22	=22	=22
1F	1A	2f	1a	4dd
.	.	.	.	4cc
.	.	2f	.	1cc
1G	1r	2d	[1g	.
.	.	2d	.	2b
=23	=23	=23	=23	=23
1C	2r	1e	1g]	1cc
.	1c	.	.	.
[1F	.	[1f	[1a	2r
.	2c	.	.	[2cc
=24	=24	=24	=24	=24
2F]	1.c	2f]	2a]	2cc]
2F	.	2f	2a	2cc
1F	.	1f	1a	1cc
.	[2f	.	.	.
=25	=25	=25	=25	=25
2.G	4f]	1.d	2b-	1dd
.	4e	.	.	.
.	1d	.	2f	.
4F	.	.	.	.
1E	.	.	2.g	1b-
.	[2G	2d	.	.
.	.	.	4f	.
=26	=26	=26	=26	=26
1C	2G]	4c	1e	2.cc
.	.	4B-	.	.
.	1A	4A	.	.
.	.	4G	.	4b-
2.D	.	1F	2.f	2a
.	[2d	.	.	[2b-
4C	.	.	4e	.
=27	=27	=27	=27	=27
4D	2d]	2.f	2d	2b-]
4E	.	.	.	.
2F	2c	.	2A	1a
.	.	4e	.	.
1G	1B-	4d	1r	.
.	.	4c	.	.
.	.	[2d	.	2g
=28	=28	=28	=28	=28
2.D	1A	4d]	2r	1a
.	.	8c	.	.
.	.	8B-	.	.
.	.	2A	1f	.
4C	.	.	.	.
4D	1r	2B-	.	1r
4E	.	.	.	.
[2F	.	2A	2f	.
=29	=29	=29	=29	=29
2F]	2r	1G	1g	1r
2E	1c	.	.	.
1F	.	1r	2a	2r
.	2c	.	[2a	[2f
=30	=30	=30	=30	=30
0r	1d	1r	4a]	2f]
.	.	.	4a	.
.	.	.	2b-	2f
.	1e	[1c	1cc	1g
=31	=31	=31	=31	=31
1.F	1f	2c]	1cc	2a
.	.	2c	.	2.a
.	2f	1d	1r	.
.	.	.	.	4a
2F	2a	.	.	2a
=32	=32	=32	=32	=32
1G	1g	2d	1r	1b-
.	.	2.e	.	.
2A	1c	.	2r	1a
.	.	4e	.	.
[2A	.	2e	[2c	.
=33	=33	=33	=33	=33
4A]	0r	2f	2c]	1cc
4A	.	.	.	.
2A	.	2.e	2c	.
1B-	.	.	1d	2f
.	.	4d	.	.
.	.	[2d	.	2g
=34	=34	=34	=34	=34
1A	1r	2d]	1e	1a
.	.	2c#	.	.
2.D	2r	1d	2f	1a
.	[2a	.	[2f	.
4E	.	.	.	.
=35	=35	=35	=35	=35
2F	4a]	1c	4f]	2r
.	4a	.	4f	.
2E	2g	.	2g	2.cc
1F	2.f	2r	2.a	.
.	.	.	.	4cc
.	.	[2f	.	2cc
.	4e	.	4g	.
=36	=36	=36	=36	=36
0r	1d	4f]	2a	1dd
.	.	4f	.	.
.	.	2f	2b	.
.	1c	1g	1cc	1ee
=37	=37	=37	=37	=37
2r	0r	1a	1f	2cc
1F	.	.	.	2.dd
.	.	2.f	1a	.
.	.	.	.	4cc
2F	.	.	.	[2cc
.	.	4e	.	.
=38	=38	=38	=38	=38
1G	1r	2d	2.g	2cc]
.	.	2d	.	2b
.	.	.	4f	.
1A	2.c	2r	1e	[1cc
.	.	[2c	.	.
.	4B-	.	.	.
=39	=39	=39	=39	=39
1F	1A	2c]	2r	1cc]
.	.	2c	1f	.
1B-	1r	[1d	.	2r
.	.	.	2f	[2b-
=40	=40	=40	=40	=40
1G	0r	1d]	1g	2b-]
.	.	.	.	2b-
1c	.	1e	1g	1cc
=41	=41	=41	=41	=41
1A	0r	2e	2a	2cc
.	.	2.f	1a	2cc
[1B-	.	.	.	[1dd
.	.	4e	.	.
.	.	4d	4g	.
.	.	4c	4f	.
=42	=42	=42	=42	=42
2B-]	1r	2.d	2g	2dd]
2B-	.	.	2g	2dd
.	.	4e	.	.
1F	2r	2f	2a	2cc
.	[2f	2F	[2a	[2cc
=43	=43	=43	=43	=43
0r	4f]	1c	4a]	4cc]
.	4f	.	4a	4cc
.	2e	.	2g	2cc
.	2d	1r	2a	2ff
.	2c	.	2a	2ee
=44	=44	=44	=44	=44
0r	2B-	0r	2.b-	2.dd
.	2G	.	.	.
.	.	.	4a	4cc
.	2G	.	2g	2b-
.	2A	.	2f	2a
=45	=45	=45	=45	=45
0r	1c	2r	2e	2g
.	.	1F	1a	1cc
.	1d	.	.	.
.	.	2G	[2g	2b-
=46	=46	=46	=46	=46
1r	1c	2.A	2g]	1a
.	.	.	1f	.
.	.	4B-	.	.
[1C	2r	2.c	.	1g
.	[2g	.	4e	.
.	.	4B-	4d	.
=47	=47	=47	=47	=47
2C]	2g]	1A	2e	1r
2D	2f	.	2.d	.
2.E	1e	2G	.	1g
.	.	.	4c	.
.	.	[2g	2c	.
4F	.	.	.	.
=48	=48	=48	=48	=48
0G	2d	2g]	2B	1g
.	1c	2e	2c	.
.	.	1d	2d	1dd
.	2B	.	2G	.
=49	=49	=49	=49	=49
2C	1c	1g	2r	1ee
1c	.	.	1g	.
.	1r	1e	.	2r
2c	.	.	2g	[2cc
=50	=50	=50	=50	=50
2F	0r	2f	1a	2cc]
2A	.	2c	.	2cc
1G	.	2.g	1b-	1dd
.	.	4f	.	.
=51	=51	=51	=51	=51
0r	0r	2e	2g	1ee
.	.	2c	1cc	.
.	.	2.f	.	2cc
.	.	.	2a	[2ff
.	.	4e	.	.
=52	=52	=52	=52	=52
0r	0r	2d	2b	2ff]
.	.	2c	1cc	2ee
.	.	1g	.	1dd
.	.	.	2b	.
=53	=53	=53	=53	=53
1.F	2r	1a	1cc	2cc
.	2c	.	.	1a
.	2c	2.f	1r	.
2F	[2d	.	.	2a
.	.	4f	.	.
=54	=54	=54	=54	=54
1G	2d]	2d	0r	1b-
.	1e	2g	.	.
1A	.	2e	.	1cc
.	2c	[2a	.	.
=55	=55	=55	=55	=55
2F	4f	4a]	2r	2a
.	4e	4g	.	.
1B-	4d	4f	1f	1dd
.	4c	4e	.	.
.	2B-	2d	.	.
2A	2c	[2f	2f	2cc
=56	=56	=56	=56	=56
1G	2d	2f]	1g	1b-
.	2B-	2e	.	.
1F	2c	1f	[1a	2a
.	[2A	.	.	[2cc
=57	=57	=57	=57	=57
1r	2A]	1.F	2a]	2cc]
.	2A	.	1f	2cc
[1BB-	2.B-	.	.	[1dd
.	.	2F	[2b-	.
.	4A	.	.	.
=58	=58	=58	=58	=58
2BB-]	4B-	1.G	4b-]	1dd]
.	4c	.	4a	.
2BB-	2d	.	4g	.
.	.	.	4f	.
1C	1c	.	2e	2ee
.	.	[2A	2e	2cc
=59	=59	=59	=59	=59
1D	1A	2A]	2d	2.ff
.	.	2F	2.f	.
.	.	.	.	4ee
1BB-	1d	1B-	.	2dd
.	.	.	4d	.
.	.	.	[2g	2dd
=60	=60	=60	=60	=60
0C	2e	1A	2g]	0cc
.	2f	.	1f	.
.	1g	1G	.	.
.	.	.	2e	.
=61	=61	=61	=61	=61
0F	2.a	4F	2.f	0cc
.	.	4G	.	.
.	.	4A	.	.
.	4g	4B-	4g	.
.	1f	1c	1a	.
=62	=62	=62	=62	=62
0C	0e	0c	0g	0cc
*-	*-	*-	*-	*-
!!!CDT: 1525/^1526/-1594/2/2
!!!OCY: Italia
!!!AGN: Mass (Parody)
!!!AST: renaissance, vocal
!!!ASW: Motet (Morales)
!!!PWK: Masses, Book 8
!!!RNB: Cadence finals: C
!!!YOR: Le Opere Complete, v. 24, p. 227
!!!YOO: Rome, Italy: Fratelli Scalera
!!!END: 1992//
!!!EED: John Miller
!!!YEC: Copyright 2000, John Miller
!!!YEN: United States of America
!!!YEM: Rights to all derivative electronic formats reserved.
!!!YEM: Refer to licensing agreement for further details.
!!!YEM: This file must be accompanied by the licensing agreement.
!!!YEM: A copy of the licensing agreement may be found at http://www.music-cog.ohio-state.edu/HumdrumDatabases/Palestrina/license.txt
!!!EMD: converted to Humdrum by Bret Aarden
